Newaita-dark/apps/48/stellarium.svg

<svg height="48pt" viewBox="0 0 48 48" width="48pt" xmlns="http://www.w3.org/2000/svg" xmlns:xlink="http://www.w3.org/1999/xlink"><linearGradient id="a" gradientUnits="userSpaceOnUse" x1="23.81478" x2="23.81478" y1="42.0509045" y2="44.03547050005"><stop offset="0" stop-opacity=".27451"/><stop offset="1" stop-opacity="0"/></linearGradient><linearGradient id="b"><stop offset="0" stop-opacity=".313725"/><stop offset=".222222" stop-opacity=".27451"/><stop offset="1" stop-opacity="0"/></linearGradient><radialGradient id="c" cx="450.908936" cy="189.579361" gradientTransform="matrix(.00000026 -.117199 -.210958 -.00000015 79.684395 95.392999)" gradientUnits="userSpaceOnUse" r="21.166656" xlink:href="#b"/><radialGradient id="d" cx="450.908936" cy="189.579361" gradientTransform="matrix(-.00000026 .117199 .210958 .00000015 -31.80678 -11.291218)" gradientUnits="userSpaceOnUse" r="21.166656" xlink:href="#b"/><radialGradient id="e" cx="450.908936" cy="189.579361" gradientTransform="matrix(-.00000026 -.117199 .210958 -.00000015 -31.80678 95.392999)" gradientUnits="userSpaceOnUse" r="21.166656" xlink:href="#b"/><radialGradient id="f" cx="450.908936" cy="189.579361" gradientTransform="matrix(.00000026 .117199 -.210958 .00000015 79.684393 -11.291219)" gradientUnits="userSpaceOnUse" r="21.166656" xlink:href="#b"/><linearGradient id="g" gradientUnits="userSpaceOnUse" x1="23.814786" x2="23.814786" y1="42.0509015" y2="4.34415649995"><stop offset="0" stop-color="#42a5f5"/><stop offset="1" stop-color="#7986cb"/></linearGradient><linearGradient id="h" gradientUnits="userSpaceOnUse" x1="23.814786" x2="23.814786" y1="42.0509005" y2="29.15122525005"><stop offset="0" stop-color="#37474f"/><stop offset="1" stop-color="#455a64"/></linearGradient><linearGradient id="i"><stop offset="0" stop-color="#fdd835"/><stop offset="1" stop-color="#fff176"/></linearGradient><linearGradient id="j" gradientUnits="userSpaceOnUse" x1="33.241516" x2="33.241516" xlink:href="#i" y1="15.65521829293" y2="9.70151429293"/><linearGradient id="k" gradientUnits="userSpaceOnUse" x1="13.89194892085" x2="13.89194892085" xlink:href="#i" y1="14.26698818021" y2="11.290142"/><linearGradient id="l" gradientUnits="userSpaceOnUse" x1="19.47353692085" x2="19.47353692085" xlink:href="#i" y1="18.36015318021" y2="15.383307"/><linearGradient id="m" gradientUnits="userSpaceOnUse" x1="27.28775992085" x2="27.28775992085" xlink:href="#i" y1="20.71682418021" y2="17.739978"/><linearGradient id="n" gradientUnits="userSpaceOnUse" x1="24.43494892085" x2="24.43494892085" xlink:href="#i" y1="11.41417718021" y2="8.437331"/><linearGradient id="o" gradientTransform="matrix(.888889 0 0 .882353 28.222202 3.81372)" gradientUnits="userSpaceOnUse" x1="254" x2="254" y1="212.333328" y2="-147.5"><stop offset="0" stop-color="#f5f5f5" stop-opacity=".133333"/><stop offset="1" stop-color="#fafafa" stop-opacity=".003922"/></linearGradient><path d="m7.691406 42.050781h32.496094v1.984375h-32.496094zm0 0" fill="url(#a)"/><path d="m40.1875 42.050781h3.96875v-1.984375h-3.96875zm0 0" fill="url(#c)"/><path d="m7.691406 42.050781h-3.96875v1.984375h3.96875zm0 0" fill="url(#d)"/><path d="m7.691406 42.050781h-3.96875v-1.984375h3.96875zm0 0" fill="url(#e)"/><path d="m40.1875 42.050781h3.96875v1.984375h-3.96875zm0 0" fill="url(#f)"/><path d="m5.953125 4.34375h35.722656c1.097657 0 1.984375.890625 1.984375 1.984375v33.738281c0 1.097656-.886718 1.984375-1.984375 1.984375h-35.722656c-1.09375 0-1.984375-.886719-1.984375-1.984375v-33.738281c0-1.09375.890625-1.984375 1.984375-1.984375zm0 0" fill="url(#g)"/><path d="m5.457031 4.46875c-.824219 0-1.488281.664062-1.488281 1.488281v.246094c0-.824219.664062-1.488281 1.488281-1.488281h36.714844c.824219 0 1.488281.664062 1.488281 1.488281v-.246094c0-.824219-.664062-1.488281-1.488281-1.488281zm0 0" fill="#fff" fill-opacity=".392157"/><path d="m6.5 29.324219c-.660156.003906-1.460938.230469-2.53125.820312v9.742188c0 1.199219.882812 2.160156 1.980469 2.164062h36.222656c.824219 0 1.488281-.664062 1.488281-1.488281v-2.40625c-7.363281 3.238281-13.421875-2.003906-16.511718-2.886719-3.601563-1.027343-5.316407-5.125-11.273438-4.132812-6.324219 1.582031-6.78125-1.828125-9.375-1.8125zm0 0" fill="url(#h)"/><path d="m5.457031 41.925781c-.824219 0-1.488281-.664062-1.488281-1.488281v-.246094c0 .824219.664062 1.488282 1.488281 1.488282h36.714844c.824219 0 1.488281-.664063 1.488281-1.488282v.246094c0 .824219-.664062 1.488281-1.488281 1.488281zm0 0" fill="#030303" fill-opacity=".235294"/><path d="m5.457031 4.203125c-.898437 0-1.628906.730469-1.628906 1.628906v34.730469c0 .898438.730469 1.628906 1.628906 1.628906h36.714844c.898437 0 1.628906-.730468 1.628906-1.628906v-34.730469c0-.898437-.730469-1.628906-1.628906-1.628906zm0 .28125h36.714844c.75 0 1.347656.597656 1.347656 1.347656v34.730469c0 .75-.597656 1.347656-1.347656 1.347656h-36.714844c-.75 0-1.347656-.597656-1.347656-1.347656v-34.730469c0-.75.597656-1.347656 1.347656-1.347656zm0 0" fill="#212121"/><path d="m33.242188 9.703125c-.542969 0-1.050782.140625-1.488282.394531.890625.511719 1.488282 1.472656 1.488282 2.582032 0 1.105468-.597657 2.066406-1.488282 2.578124.4375.253907.945313.398438 1.488282.398438 1.648437 0 2.976562-1.328125 2.976562-2.976562 0-1.652344-1.328125-2.976563-2.976562-2.976563zm0 0" fill="url(#j)"/><path d="m13.890625 14.265625-.371094-1.113281-1.117187-.375 1.117187-.371094.371094-1.117188.375 1.117188 1.113281.371094-1.113281.375zm0 0" fill="url(#k)"/><path d="m19.472656 18.359375-.371094-1.117187-1.117187-.371094 1.117187-.371094.371094-1.117188.371094 1.117188 1.117188.371094-1.117188.371094zm0 0" fill="url(#l)"/><path d="m27.289062 20.71875-.375-1.117188-1.113281-.375 1.113281-.371093.375-1.117188.371094 1.117188 1.117188.371093-1.117188.375zm0 0" fill="url(#m)"/><path d="m24.433594 11.414062-.371094-1.117187-1.117188-.371094 1.117188-.371093.371094-1.117188.375 1.117188 1.113281.371093-1.113281.371094zm0 0" fill="url(#n)"/><path d="m92.907794-136.924123h322.177567c10.415672 0 18.831535 8.374201 18.831535 18.664885v301.346223c0 10.290684-8.415863 18.664884-18.831535 18.664884h-322.177567c-10.415672 0-18.831535-8.3742-18.831535-18.664884v-301.346223c0-10.290684 8.415863-18.664885 18.831535-18.664885zm0 0" fill="url(#o)" stroke="#212121" stroke-linecap="round" stroke-linejoin="round" stroke-width="3" transform="matrix(.093759 0 0 .093759 0 20.158175)"/></svg>

<?xml version="1.0" encoding="UTF-8"?>
<svg xmlns="http://www.w3.org/2000/svg" xmlns:xlink="http://www.w3.org/1999/xlink" width="48pt" height="48pt" viewBox="0 0 48 48" version="1.1">
<defs>
<linearGradient id="linear0" gradientUnits="userSpaceOnUse" x1="254" y1="233.5" x2="254" y2="254.666672" gradientTransform="matrix(0.093759,0,0,0.093759,-0.00000572259,20.158178)">
<stop offset="0" style="stop-color:rgb(0%,0%,0%);stop-opacity:0.27451;"/>
<stop offset="1" style="stop-color:rgb(0%,0%,0%);stop-opacity:0;"/>
</linearGradient>
<radialGradient id="radial0" gradientUnits="userSpaceOnUse" cx="450.908936" cy="189.579361" fx="450.908936" fy="189.579361" r="21.166656" gradientTransform="matrix(0.000000261256,-0.117199,-0.210958,-0.000000152308,79.684395,95.392999)">
<stop offset="0" style="stop-color:rgb(0%,0%,0%);stop-opacity:0.313725;"/>
<stop offset="0.222222" style="stop-color:rgb(0%,0%,0%);stop-opacity:0.27451;"/>
<stop offset="1" style="stop-color:rgb(0%,0%,0%);stop-opacity:0;"/>
</radialGradient>
<radialGradient id="radial1" gradientUnits="userSpaceOnUse" cx="450.908936" cy="189.579361" fx="450.908936" fy="189.579361" r="21.166656" gradientTransform="matrix(-0.000000261256,0.117199,0.210958,0.000000152308,-31.80678,-11.291218)">
<stop offset="0" style="stop-color:rgb(0%,0%,0%);stop-opacity:0.313725;"/>
<stop offset="0.222222" style="stop-color:rgb(0%,0%,0%);stop-opacity:0.27451;"/>
<stop offset="1" style="stop-color:rgb(0%,0%,0%);stop-opacity:0;"/>
</radialGradient>
<radialGradient id="radial2" gradientUnits="userSpaceOnUse" cx="450.908936" cy="189.579361" fx="450.908936" fy="189.579361" r="21.166656" gradientTransform="matrix(-0.000000261256,-0.117199,0.210958,-0.000000152308,-31.80678,95.392999)">
<stop offset="0" style="stop-color:rgb(0%,0%,0%);stop-opacity:0.313725;"/>
<stop offset="0.222222" style="stop-color:rgb(0%,0%,0%);stop-opacity:0.27451;"/>
<stop offset="1" style="stop-color:rgb(0%,0%,0%);stop-opacity:0;"/>
</radialGradient>
<radialGradient id="radial3" gradientUnits="userSpaceOnUse" cx="450.908936" cy="189.579361" fx="450.908936" fy="189.579361" r="21.166656" gradientTransform="matrix(0.000000261256,0.117199,-0.210958,0.000000152308,79.684393,-11.291219)">
<stop offset="0" style="stop-color:rgb(0%,0%,0%);stop-opacity:0.313725;"/>
<stop offset="0.222222" style="stop-color:rgb(0%,0%,0%);stop-opacity:0.27451;"/>
<stop offset="1" style="stop-color:rgb(0%,0%,0%);stop-opacity:0;"/>
</radialGradient>
<linearGradient id="linear1" gradientUnits="userSpaceOnUse" x1="254" y1="233.5" x2="254" y2="-168.666672" gradientTransform="matrix(0.093759,0,0,0.093759,0,20.158175)">
<stop offset="0" style="stop-color:rgb(25.882353%,64.705882%,96.078431%);stop-opacity:1;"/>
<stop offset="1" style="stop-color:rgb(47.45098%,52.54902%,79.607843%);stop-opacity:1;"/>
</linearGradient>
<linearGradient id="linear2" gradientUnits="userSpaceOnUse" x1="254" y1="233.5" x2="254" y2="95.916672" gradientTransform="matrix(0.093759,0,0,0.093759,0,20.158174)">
<stop offset="0" style="stop-color:rgb(21.568627%,27.843137%,30.980392%);stop-opacity:1;"/>
<stop offset="1" style="stop-color:rgb(27.058824%,35.294118%,39.215686%);stop-opacity:1;"/>
</linearGradient>
<linearGradient id="linear3" gradientUnits="userSpaceOnUse" x1="1400" y1="695.118103" x2="1400" y2="455.118103" gradientTransform="matrix(0.0248071,0,0,0.0248071,-1.488424,-1.588646)">
<stop offset="0" style="stop-color:rgb(99.215686%,84.705882%,20.784314%);stop-opacity:1;"/>
<stop offset="1" style="stop-color:rgb(100%,94.509804%,46.27451%);stop-opacity:1;"/>
</linearGradient>
<linearGradient id="linear4" gradientUnits="userSpaceOnUse" x1="148.166672" y1="-62.833332" x2="148.166672" y2="-147.5" gradientTransform="matrix(0.0351596,0,0,0.0351596,8.682468,16.476183)">
<stop offset="0" style="stop-color:rgb(99.215686%,84.705882%,20.784314%);stop-opacity:1;"/>
<stop offset="1" style="stop-color:rgb(100%,94.509804%,46.27451%);stop-opacity:1;"/>
</linearGradient>
<linearGradient id="linear5" gradientUnits="userSpaceOnUse" x1="148.166672" y1="-62.833332" x2="148.166672" y2="-147.5" gradientTransform="matrix(0.0351596,0,0,0.0351596,14.264056,20.569348)">
<stop offset="0" style="stop-color:rgb(99.215686%,84.705882%,20.784314%);stop-opacity:1;"/>
<stop offset="1" style="stop-color:rgb(100%,94.509804%,46.27451%);stop-opacity:1;"/>
</linearGradient>
<linearGradient id="linear6" gradientUnits="userSpaceOnUse" x1="148.166672" y1="-62.833332" x2="148.166672" y2="-147.5" gradientTransform="matrix(0.0351596,0,0,0.0351596,22.078279,22.926019)">
<stop offset="0" style="stop-color:rgb(99.215686%,84.705882%,20.784314%);stop-opacity:1;"/>
<stop offset="1" style="stop-color:rgb(100%,94.509804%,46.27451%);stop-opacity:1;"/>
</linearGradient>
<linearGradient id="linear7" gradientUnits="userSpaceOnUse" x1="148.166672" y1="-62.833332" x2="148.166672" y2="-147.5" gradientTransform="matrix(0.0351596,0,0,0.0351596,19.225468,13.623372)">
<stop offset="0" style="stop-color:rgb(99.215686%,84.705882%,20.784314%);stop-opacity:1;"/>
<stop offset="1" style="stop-color:rgb(100%,94.509804%,46.27451%);stop-opacity:1;"/>
</linearGradient>
<linearGradient id="linear8" gradientUnits="userSpaceOnUse" x1="254" y1="212.333328" x2="254" y2="-147.5" gradientTransform="matrix(0.888889,0,0,0.882353,28.222202,3.81372)">
<stop offset="0" style="stop-color:rgb(96.078431%,96.078431%,96.078431%);stop-opacity:0.133333;"/>
<stop offset="1" style="stop-color:rgb(98.039216%,98.039216%,98.039216%);stop-opacity:0.00392157;"/>
</linearGradient>
</defs>
<g id="surface1">
<path style=" stroke:none;fill-rule:nonzero;fill:url(#linear0);" d="M 7.691406 42.050781 L 40.1875 42.050781 L 40.1875 44.035156 L 7.691406 44.035156 Z M 7.691406 42.050781 "/>
<path style=" stroke:none;fill-rule:nonzero;fill:url(#radial0);" d="M 40.1875 42.050781 L 44.15625 42.050781 L 44.15625 40.066406 L 40.1875 40.066406 Z M 40.1875 42.050781 "/>
<path style=" stroke:none;fill-rule:nonzero;fill:url(#radial1);" d="M 7.691406 42.050781 L 3.722656 42.050781 L 3.722656 44.035156 L 7.691406 44.035156 Z M 7.691406 42.050781 "/>
<path style=" stroke:none;fill-rule:nonzero;fill:url(#radial2);" d="M 7.691406 42.050781 L 3.722656 42.050781 L 3.722656 40.066406 L 7.691406 40.066406 Z M 7.691406 42.050781 "/>
<path style=" stroke:none;fill-rule:nonzero;fill:url(#radial3);" d="M 40.1875 42.050781 L 44.15625 42.050781 L 44.15625 44.035156 L 40.1875 44.035156 Z M 40.1875 42.050781 "/>
<path style=" stroke:none;fill-rule:nonzero;fill:url(#linear1);" d="M 5.953125 4.34375 L 41.675781 4.34375 C 42.773438 4.34375 43.660156 5.234375 43.660156 6.328125 L 43.660156 40.066406 C 43.660156 41.164062 42.773438 42.050781 41.675781 42.050781 L 5.953125 42.050781 C 4.859375 42.050781 3.96875 41.164062 3.96875 40.066406 L 3.96875 6.328125 C 3.96875 5.234375 4.859375 4.34375 5.953125 4.34375 Z M 5.953125 4.34375 "/>
<path style=" stroke:none;fill-rule:nonzero;fill:rgb(100%,100%,100%);fill-opacity:0.392157;" d="M 5.457031 4.46875 C 4.632812 4.46875 3.96875 5.132812 3.96875 5.957031 L 3.96875 6.203125 C 3.96875 5.378906 4.632812 4.714844 5.457031 4.714844 L 42.171875 4.714844 C 42.996094 4.714844 43.660156 5.378906 43.660156 6.203125 L 43.660156 5.957031 C 43.660156 5.132812 42.996094 4.46875 42.171875 4.46875 Z M 5.457031 4.46875 "/>
<path style=" stroke:none;fill-rule:nonzero;fill:url(#linear2);" d="M 6.5 29.324219 C 5.839844 29.328125 5.039062 29.554688 3.96875 30.144531 L 3.96875 39.886719 C 3.96875 41.085938 4.851562 42.046875 5.949219 42.050781 L 42.171875 42.050781 C 42.996094 42.050781 43.660156 41.386719 43.660156 40.5625 L 43.660156 38.15625 C 36.296875 41.394531 30.238281 36.152344 27.148438 35.269531 C 23.546875 34.242188 21.832031 30.144531 15.875 31.136719 C 9.550781 32.71875 9.09375 29.308594 6.5 29.324219 Z M 6.5 29.324219 "/>
<path style=" stroke:none;fill-rule:nonzero;fill:rgb(1.176471%,1.176471%,1.176471%);fill-opacity:0.235294;" d="M 5.457031 41.925781 C 4.632812 41.925781 3.96875 41.261719 3.96875 40.4375 L 3.96875 40.191406 C 3.96875 41.015625 4.632812 41.679688 5.457031 41.679688 L 42.171875 41.679688 C 42.996094 41.679688 43.660156 41.015625 43.660156 40.191406 L 43.660156 40.4375 C 43.660156 41.261719 42.996094 41.925781 42.171875 41.925781 Z M 5.457031 41.925781 "/>
<path style=" stroke:none;fill-rule:nonzero;fill:rgb(12.941177%,12.941177%,12.941177%);fill-opacity:1;" d="M 5.457031 4.203125 C 4.558594 4.203125 3.828125 4.933594 3.828125 5.832031 L 3.828125 40.5625 C 3.828125 41.460938 4.558594 42.191406 5.457031 42.191406 L 42.171875 42.191406 C 43.070312 42.191406 43.800781 41.460938 43.800781 40.5625 L 43.800781 5.832031 C 43.800781 4.933594 43.070312 4.203125 42.171875 4.203125 Z M 5.457031 4.484375 L 42.171875 4.484375 C 42.921875 4.484375 43.519531 5.082031 43.519531 5.832031 L 43.519531 40.5625 C 43.519531 41.3125 42.921875 41.910156 42.171875 41.910156 L 5.457031 41.910156 C 4.707031 41.910156 4.109375 41.3125 4.109375 40.5625 L 4.109375 5.832031 C 4.109375 5.082031 4.707031 4.484375 5.457031 4.484375 Z M 5.457031 4.484375 "/>
<path style=" stroke:none;fill-rule:nonzero;fill:url(#linear3);" d="M 33.242188 9.703125 C 32.699219 9.703125 32.191406 9.84375 31.753906 10.097656 C 32.644531 10.609375 33.242188 11.570312 33.242188 12.679688 C 33.242188 13.785156 32.644531 14.746094 31.753906 15.257812 C 32.191406 15.511719 32.699219 15.65625 33.242188 15.65625 C 34.890625 15.65625 36.21875 14.328125 36.21875 12.679688 C 36.21875 11.027344 34.890625 9.703125 33.242188 9.703125 Z M 33.242188 9.703125 "/>
<path style=" stroke:none;fill-rule:nonzero;fill:url(#linear4);" d="M 13.890625 14.265625 L 13.519531 13.152344 L 12.402344 12.777344 L 13.519531 12.40625 L 13.890625 11.289062 L 14.265625 12.40625 L 15.378906 12.777344 L 14.265625 13.152344 Z M 13.890625 14.265625 "/>
<path style=" stroke:none;fill-rule:nonzero;fill:url(#linear5);" d="M 19.472656 18.359375 L 19.101562 17.242188 L 17.984375 16.871094 L 19.101562 16.5 L 19.472656 15.382812 L 19.84375 16.5 L 20.960938 16.871094 L 19.84375 17.242188 Z M 19.472656 18.359375 "/>
<path style=" stroke:none;fill-rule:nonzero;fill:url(#linear6);" d="M 27.289062 20.71875 L 26.914062 19.601562 L 25.800781 19.226562 L 26.914062 18.855469 L 27.289062 17.738281 L 27.660156 18.855469 L 28.777344 19.226562 L 27.660156 19.601562 Z M 27.289062 20.71875 "/>
<path style=" stroke:none;fill-rule:nonzero;fill:url(#linear7);" d="M 24.433594 11.414062 L 24.0625 10.296875 L 22.945312 9.925781 L 24.0625 9.554688 L 24.433594 8.4375 L 24.808594 9.554688 L 25.921875 9.925781 L 24.808594 10.296875 Z M 24.433594 11.414062 "/>
<path style="fill-rule:nonzero;fill:url(#linear8);stroke-width:3;stroke-linecap:round;stroke-linejoin:round;stroke:rgb(12.941177%,12.941177%,12.941177%);stroke-opacity:1;stroke-miterlimit:4;" d="M 92.907794 -136.924123 L 415.085361 -136.924123 C 425.501033 -136.924123 433.916896 -128.549922 433.916896 -118.259238 L 433.916896 183.086985 C 433.916896 193.377669 425.501033 201.751869 415.085361 201.751869 L 92.907794 201.751869 C 82.492122 201.751869 74.076259 193.377669 74.076259 183.086985 L 74.076259 -118.259238 C 74.076259 -128.549922 82.492122 -136.924123 92.907794 -136.924123 Z M 92.907794 -136.924123 " transform="matrix(0.093759,0,0,0.093759,0,20.158175)"/>
</g>
</svg>
